poi/svg/1403.svg

<?xml version="1.0" encoding="UTF-8" standalone="no"?>
<svg
   xmlns:dc="http://purl.org/dc/elements/1.1/"
   xmlns:cc="http://creativecommons.org/ns#"
   xmlns:rdf="http://www.w3.org/1999/02/22-rdf-syntax-ns#"
   xmlns:svg="http://www.w3.org/2000/svg"
   xmlns="http://www.w3.org/2000/svg"
   xmlns:sodipodi="http://sodipodi.sourceforge.net/DTD/sodipodi-0.dtd"
   xmlns:inkscape="http://www.inkscape.org/namespaces/inkscape"
   inkscape:version="1.0 (4035a4fb49, 2020-05-01)"
   sodipodi:docname="1403.svg"
   id="svg20"
   version="1.2"
   viewBox="0 0 42.519639 42.519639"
   height="14.999999mm"
   width="14.999999mm">
  <metadata
     id="metadata24">
    <rdf:RDF>
      <cc:Work
         rdf:about="">
        <dc:format>image/svg+xml</dc:format>
        <dc:type
           rdf:resource="http://purl.org/dc/dcmitype/StillImage" />
        <dc:title>Qt SVG Document</dc:title>
      </cc:Work>
    </rdf:RDF>
  </metadata>
  <sodipodi:namedview
     inkscape:current-layer="svg20"
     inkscape:window-maximized="0"
     inkscape:window-y="0"
     inkscape:window-x="0"
     inkscape:cy="28.346482"
     inkscape:cx="28.346482"
     inkscape:zoom="5.8410537"
     showgrid="false"
     id="namedview22"
     inkscape:window-height="480"
     inkscape:window-width="1034"
     inkscape:pageshadow="2"
     inkscape:pageopacity="0"
     guidetolerance="10"
     gridtolerance="10"
     objecttolerance="10"
     borderopacity="1"
     bordercolor="#666666"
     pagecolor="#ffffff" />
  <title
     id="title2">Qt SVG Document</title>
  <desc
     id="desc4">Generated with Qt</desc>
  <defs
     id="defs6" />
  <g
     transform="translate(5.25984,5.25984)"
     id="g18"
     stroke-linejoin="bevel"
     stroke-linecap="square"
     fill-rule="evenodd"
     stroke-width="1"
     stroke="#000000"
     fill="none">
    <g
       id="g10"
       font-style="normal"
       font-weight="400"
       font-size="7.8px"
       font-family="'MS Shell Dlg 2'"
       stroke="none"
       fill-opacity="1"
       fill="#8a5aa5">
      <path
         id="path8"
         d="M 37.2598,16 C 37.2598,27.7415 27.7415,37.2598 16,37.2598 4.25851,37.2598 -5.25984,27.7415 -5.25984,16 -5.25984,4.25851 4.25851,-5.25984 16,-5.25984 27.7415,-5.25984 37.2598,4.25851 37.2598,16"
         fill-rule="evenodd"
         vector-effect="non-scaling-stroke" />
    </g>
    <g
       id="g14"
       font-style="normal"
       font-weight="400"
       font-size="7.8px"
       font-family="'MS Shell Dlg 2'"
       transform="translate(16,12.5984)"
       stroke="none"
       fill-opacity="0.94902"
       fill="#ffffff">
      <path
         id="path12"
         d="m 11.5391,-4.28857 c 0.3079,0 0.5774,0.11547 0.8083,0.34643 0.231,0.23096 0.3464,0.50741 0.3464,0.82935 V 11.6265 c 0,0.3219 -0.1154,0.6054 -0.3464,0.8503 -0.2309,0.245 -0.5004,0.3674 -0.8083,0.3674 h -22.6758 c -0.308,0 -0.5774,-0.1224 -0.8084,-0.3674 -0.2309,-0.2449 -0.3464,-0.5284 -0.3464,-0.8503 V -3.11279 c 0,-0.32194 0.1155,-0.59839 0.3464,-0.82935 0.231,-0.23096 0.5004,-0.34643 0.8084,-0.34643 H 11.5391 M -2.82227,10.4297 -6.18164,-1.91602 H -7.94531 L -11.1787,10.4297 h 1.76366 l 0.81885,-3.73732 h 3.06543 l 0.86084,3.73732 h 1.84765 M 2.40576,-1.91602 h -6.57178 v 1.427739 h 2.45655 V 10.4297 h 1.6796848 V -0.488281 H 2.40576 V -1.91602 m 9.17534,0 H 9.08252 L 7.5708,7.76318 6.08008,-1.91602 H 3.53955 V 10.4297 H 5.11426 V -0.110352 L 6.75195,10.4297 h 1.6377 L 10.0273,-0.110352 V 10.4297 h 1.5538 V -1.91602 M -7.08447,0.0576172 -5.8457,5.30664 h -2.39356 l 1.15479,-5.2490228"
         fill-rule="evenodd"
         vector-effect="none" />
    </g>
    <g
       id="g16"
       font-style="normal"
       font-weight="400"
       font-size="7.8px"
       font-family="'MS Shell Dlg 2'"
       stroke="none"
       fill-opacity="1"
       fill="#8a5aa5" />
  </g>
</svg>

<?xml version="1.0" encoding="UTF-8" standalone="no"?>
<svg width="11.2889mm" height="11.2889mm"
 viewBox="0 0 32 32"
 xmlns="http://www.w3.org/2000/svg" xmlns:xlink="http://www.w3.org/1999/xlink"  version="1.2" baseProfile="tiny">
<title>Qt SVG Document</title>
<desc>Generated with Qt</desc>
<defs>
</defs>
<g fill="none" stroke="black" stroke-width="1" fill-rule="evenodd" stroke-linecap="square" stroke-linejoin="bevel" >

<g fill="#8a5aa5" fill-opacity="1" stroke="none" transform="matrix(1,0,0,1,0,0)"
font-family="MS Shell Dlg 2" font-size="7.8" font-weight="400" font-style="normal" 
>
<path vector-effect="non-scaling-stroke" fill-rule="evenodd" d="M37.2598,16 C37.2598,27.7415 27.7415,37.2598 16,37.2598 C4.25851,37.2598 -5.25984,27.7415 -5.25984,16 C-5.25984,4.25851 4.25851,-5.25984 16,-5.25984 C27.7415,-5.25984 37.2598,4.25851 37.2598,16 "/>
</g>

<g fill="#ffffff" fill-opacity="0.94902" stroke="none" transform="matrix(1,0,0,1,16,12.5984)"
font-family="MS Shell Dlg 2" font-size="7.8" font-weight="400" font-style="normal" 
>
<path vector-effect="none" fill-rule="evenodd" d="M11.5391,-4.28857 C11.847,-4.28857 12.1165,-4.1731 12.3474,-3.94214 C12.5784,-3.71118 12.6938,-3.43473 12.6938,-3.11279 L12.6938,11.6265 C12.6938,11.9484 12.5784,12.2319 12.3474,12.4768 C12.1165,12.7218 11.847,12.8442 11.5391,12.8442 L-11.1367,12.8442 C-11.4447,12.8442 -11.7141,12.7218 -11.9451,12.4768 C-12.176,12.2319 -12.2915,11.9484 -12.2915,11.6265 L-12.2915,-3.11279 C-12.2915,-3.43473 -12.176,-3.71118 -11.9451,-3.94214 C-11.7141,-4.1731 -11.4447,-4.28857 -11.1367,-4.28857 L11.5391,-4.28857 M-2.82227,10.4297 L-6.18164,-1.91602 L-7.94531,-1.91602 L-11.1787,10.4297 L-9.41504,10.4297 L-8.59619,6.69238 L-5.53076,6.69238 L-4.66992,10.4297 L-2.82227,10.4297 M2.40576,-1.91602 L-4.16602,-1.91602 L-4.16602,-0.488281 L-1.70947,-0.488281 L-1.70947,10.4297 L-0.0297852,10.4297 L-0.0297852,-0.488281 L2.40576,-0.488281 L2.40576,-1.91602 M11.5811,-1.91602 L9.08252,-1.91602 L7.5708,7.76318 L6.08008,-1.91602 L3.53955,-1.91602 L3.53955,10.4297 L5.11426,10.4297 L5.11426,-0.110352 L6.75195,10.4297 L8.38965,10.4297 L10.0273,-0.110352 L10.0273,10.4297 L11.5811,10.4297 L11.5811,-1.91602 M-7.08447,0.0576172 L-5.8457,5.30664 L-8.23926,5.30664 L-7.08447,0.0576172"/>
</g>

<g fill="#8a5aa5" fill-opacity="1" stroke="none" transform="matrix(1,0,0,1,0,0)"
font-family="MS Shell Dlg 2" font-size="7.8" font-weight="400" font-style="normal" 
>
</g>
</g>
</svg>
